X: 10066
T: MELISSA'S WALTZ
C: Bob McQuillen 6 July 93
B: Bob's Note Book 10 #66
%R: waltz
Z: 2020 John Chambers <jc:trillian.mit.edu>
M: 3/4
L: 1/8
K: D
FG \
| "D"A2 A3 B | "Em"G4 EF | "A7"G2 G3 A | "D"F4 FE | D2 FG FE | "Bm"D2 F2 FG | "Em"A2 BA GF | "A7"E4 FG |
| "D"A2 A3 B | "Em"G4 EF | "A7"G2 A2 B2 | "F#"c3 d e2 | "Bm"f2 d2 df | "F#m"ec A2 FA | "G"B2 c2 d2 | "A7"e4 ||
|| fg \
| "D"f2 d2 fg | fe d2 dc | "G6"B2 c2 d2 | "D"A4 Bc | d2 fg fe | "G"d2B2 dB | "D"A2 F3 D | "A7"E4 FG |
| "D"A2 F2 FA | "G"B2 GA Bd | "F#m"c2 AB ce | "Bm"d4 ef | "G6"g2 ab ag | "D"f2 d2 dB | "A7"A2 d2 c2 | "D"d2 |]
%%begintext align
%% If you looked up #31 in Book 9,
%% you'ld see it was for Derek Buffum, one of my school kids; but of course, it
%% figures that that's only half of the story, and so here's the other (better?!)
%% half, in the person of Melissa King. Melissa lives over in Hillsboro,
%% and she's AWESOME! Together, they make a super team, and I'm real glad
%% this waltz is just for you, Melissa, with much love from MAC --
%%endtext
